X:1
T:Humours of Strandroad
L:1/8
M:6/8
I:linebreak $
K:D
V:1 treble 
V:1
 FDF G2 E | FDF G2 E | FDF G2 E | Add cAG | FDF G2 E | FDF G2 E | fed cAG | Add d2 :|$ f3 geg | %9
 fed cde | f3 gfg | eaa a3 | f3 geg | fed cde | fed cAG | Add d2 :| %16
